X: 87
T: Junior Crehan's Favourite
B: begged borrowed and stolen
B: ralph
B: steve tunes
M:4/4
R: reel
Q: 1/4=140
K:Ador
V:1 
|:"Am"~A3B AGEG|A2 (3Bcd edBA|"G"~G3A GEDE|~G2BG dGBG|
"Am"~A3B AGEG|A2 (3Bcd edBA|"G"~GABd "Am"gfge|1 "Em"dBGA "Am"BAdB:|2 "Em"dBGA "Am"BAA2||
|:"Am"eaa2 eaag|ea~a2 aged|"G"eg~g2 eggf|~g3a gedg|
"Am"eaa2 eaag|~a3b aged|"G"~B3d "Am"gaba|"Em"gedB "Am"BAA2|
"Am"eaa2 eaag|ea~a2 aged|"G"eg~g2 eg~g2|dg~g2 bgag|
"Am"eaa2 eaag|~a3b aged|"G"~B3d "Am"gaba|"Em"gedB "Am"BAAG||
% abcbook-tune_id 627e2b1f257038081e5e3f31


% abcbook-boost 0
% abcbook-tablature 
% abcbook-transpose 
% abcbook-lastupdated 1652725431126
% abcbook-soundfonts 
% abcbook-repeats 3
% Rhythm Reel
% Transcriptions Only 1 transcription
% Movement Has lots of stepwise movement
% Movement Has some stepwise movement
% Mode major
% Key G
% Time_signature 2/2
% Text Has history text
% Has_accompaniment_chords No chords

